blockchains/ethereum/assets/0xc00e94Cb662C3520282E6f5717214004A7f26888/logo.svg

<svg fill="none" height="250" viewBox="0 0 250 250" width="250" xmlns="http://www.w3.org/2000/svg" xmlns:xlink="http://www.w3.org/1999/xlink"><clipPath id="a"><path d="m0 0h250v250h-250z"/></clipPath><g clip-path="url(#a)"><path d="m124.95 250.1c69.05 0 125.05-56 125.05-125.05 0-69.0502-56-125.0001953-125.05-125.0001953-69.0501 0-125.050098 55.9499953-125.050098 125.0501953 0 69.05 55.999998 125 125.050098 125z" fill="#111821"/><path clip-rule="evenodd" d="m72.1501 167c-3.75-2.3-6.05-6.35-6.05-10.75v-24.45c0-.95.25-1.85.7-2.65 1.45-2.5 4.7-3.35 7.2-1.9l55.1499 32.15c3.2 1.9 5.2 5.35 5.2 9.05v25.3c0 1.15-.3 2.3-.9 3.3-1.8 2.95-5.7 3.9-8.65 2.1zm82.1999-46.4c3.2 1.9 5.2 5.35 5.2 9.05v51.35c0 1.5-.8 2.9-2.15 3.65l-12.05 6.85c-.15.1-.3.15-.5.2v-28.5c0-3.7-1.95-7.1-5.1-9l-48.3999-28.95v-32.2502c0-.95.25-1.85.7-2.65 1.45-2.5 4.7-3.35 7.2-1.9zm24.1-37.9002c3.25 1.85 5.25 5.35 5.25 9.1v75.0002c0 1.55-.85 2.95-2.2 3.7l-11.45 6.2v-52.25c0-3.7-1.95-7.1-5.1-9l-49.5-29.7002v-30.55c0-.95.25-1.85.7-2.65 1.45-2.5 4.7-3.35 7.2-1.9z" fill="#00d395" fill-rule="evenodd"/></g></svg>

<svg width="250" height="250" viewBox="0 0 250 250" fill="none" xmlns="http://www.w3.org/2000/svg">
<g clip-path="url(#clip0_36_6077)">
<path d="M124.95 250.1C194 250.1 250 194.1 250 125.05C250 55.9998 194 0.0498047 124.95 0.0498047C55.8999 0.0498047 -0.100098 55.9998 -0.100098 125.1C-0.100098 194.15 55.8999 250.1 124.95 250.1Z" fill="#111821"/>
<path fill-rule="evenodd" clip-rule="evenodd" d="M72.1501 167C68.4001 164.7 66.1001 160.65 66.1001 156.25V131.8C66.1001 130.85 66.3501 129.95 66.8001 129.15C68.2501 126.65 71.5001 125.8 74.0001 127.25L129.15 159.4C132.35 161.3 134.35 164.75 134.35 168.45V193.75C134.35 194.9 134.05 196.05 133.45 197.05C131.65 200 127.75 200.95 124.8 199.15L72.1501 167ZM154.35 120.6C157.55 122.5 159.55 125.95 159.55 129.65V181C159.55 182.5 158.75 183.9 157.4 184.65L145.35 191.5C145.2 191.6 145.05 191.65 144.85 191.7V163.2C144.85 159.5 142.9 156.1 139.75 154.2L91.3501 125.25V92.9998C91.3501 92.0498 91.6001 91.1498 92.0501 90.3498C93.5001 87.8498 96.7501 86.9998 99.2501 88.4498L154.35 120.6ZM178.45 82.6998C181.7 84.5498 183.7 88.0498 183.7 91.7998V166.8C183.7 168.35 182.85 169.75 181.5 170.5L170.05 176.7V124.45C170.05 120.75 168.1 117.35 164.95 115.45L115.45 85.7498V55.1998C115.45 54.2498 115.7 53.3498 116.15 52.5498C117.6 50.0498 120.85 49.1998 123.35 50.6498L178.45 82.6998Z" fill="#00D395"/>
</g>
<defs>
<clipPath id="clip0_36_6077">
<rect width="250" height="250" fill="white"/>
</clipPath>
</defs>
</svg>
